svgs/sharp-solid/calendar-lines.svg

<svg xmlns="http://www.w3.org/2000/svg" viewBox="0 0 448 512"><!--! Font Awesome Pro 6.6.0 by @fontawesome - https://fontawesome.com License - https://fontawesome.com/license (Commercial License) Copyright 2024 Fonticons, Inc. --><path d="M96 0l0 64L0 64l0 96 448 0 0-96-96 0 0-64L288 0l0 64L160 64l0-64L96 0zM448 192L0 192 0 512l448 0 0-320zM96 272l256 0 0 48L96 320l0-48zm160 96l0 48L96 416l0-48 160 0z"/></svg>

<svg xmlns="http://www.w3.org/2000/svg" viewBox="0 0 448 512"><!--! Font Awesome Pro 6.4.2 by @fontawesome - https://fontawesome.com License - https://fontawesome.com/license (Commercial License) Copyright 2023 Fonticons, Inc. --><path d="M96 0V64H0v96H448V64H352V0H288V64H160V0H96zM448 192H0V512H448V192zM96 272H352v48H96V272zm160 96v48H96V368H256z"/></svg>
